X:1
T:James Gibb editions
T:If  love's a sweet passion - Purcell
T:#
%%score [ 1 2 3 4 ]
L:1/8
Q:1/4=96
M:3/4
K:Bb
V:1 treble nm="Soprano"
V:2 treble nm="Alto"
V:3 treble nm="Tenor"
V:4 bass nm="Bass"
V:1
"^From : The Fairy Queen, Act III""^Henry Purcell\n(1658-95)"!p! d2 | %1
w: ~If|
w: I|
 c3 d"^If love's a sweet passion" B2 | c2 A2 d2 | B3 A (BG) | G4 ed | c2 c2 (d/e/f) | d2 B2 d2 | %7
w: love's a sweet|pas- sion why|does it tor\- *|ment? If a|bit- ter, oh * *|tell me, whence|
w: press her hand|gent- ly, look|lan- guish- ing *|down And by|pas- sion- ate * *|si- lence, I|
 (d2 e>)d c2 | d4 :|!mf! (dc) | =B2 c2 d2 | e2 c2 f2 | G2 A2 B2 | A4 (de) | e2 d2 g2 | %15
w: comes * my con-|tent?|Since I|suf- fer with|plea- sure, why|should I com-|plain, or *|grieve at my|
w: make * my love|known.|But *|oh! how I'm|blest when so|kind she does|prove, By some|will- ing mis-|
 (gf) (gf) (ed) | (ed) (cd) (cB) | B4"^cresc." d>e | c2 c2 (c/d/e) | e2 d2 (d/=e/f) | %20
w: fate, * when * I *|know * 'tis * in *|vain? Yet so|pleas- ing the * *|pain is so * *|
w: take * to * dis\- *|co\- * ver * her *|love. When in|stri- ving to * *|hide she re\- * *|
 f2 =e2 (e/^f/g) | ^f3!f! =e d2 | g2"^dim." (d_e) f2 | d2 (Bc) d2 | B3 A G2 |!p! G4 |] %26
w: soft is the * *|dart, That at|once it * both|wounds me * and|ti- ckles my|heart.|
w: veals all her * *|flame, And our|eyes tell * each|o- ther * what|nei- ther dares|name.|
V:2
!p! G2 | D3 D D2 | E2 D2 D2 | E3 E D2 | D4 GG | G2 F2 (F/G/A) | F2 G2 D2 | G3 G A2 | ^F4 :| %9
w: ~If|love's a sweet|pas- sion why|does it tor-|ment? If a|bit- ter, oh * *|tell me, whence|comes my con-|tent?|
w: ~I|press her hand|gent- ly, look|lan- guish- ing|down And by|pas- sion- ate * *|si- lence, I|make my love|known.|
!mf! (^FF) | G2 G2 G2 | G2 =F2 F2 | F2 E2 D2 | C4 F-F | (B,C) D2 E2 | A,2 D2 G2 | G2 E3 D | %17
w: Since I|suf- fer with|plea- sure, why|should I com-|plain, or *|grieve * at my|fate, when I|know 'tis in|
w: But *|oh! how I'm|blest when so|kind she does|prove, By some|will\- * ing mis-|take to dis-|co- ver her|
 D4"^cresc." F>F | F2 F2 F2 | F2 G2 G2 | G2 A2 A2 | A4!f! AA | B2"^dim." B2 A2 | A2 G2 G2 | %24
w: vain? Yet so|pleas- ing the|pain is so|soft is the|dart, That at|once it both|wounds me and|
w: love. When in|stri- ving to|hide she re-|veals all her|flame, And our|eyes tell each|o- ther what|
 G3 G (G^F) |!p! G4 |] %26
w: ti- ckles my *|heart.|
w: nei- ther dares *|name.|
V:3
!p! B2 | A3 B G2 | A2 ^F2 G2 | G3 G ^F2 | G4 BB | c2 c2 c2 | d2 d2 B2 | B3 B e2 | A4 :|!mf! dd | %10
w: ~If|love's a sweet|pas- sion why|does It tor-|ment? If a|bit- ter, oh|tell me, whence|comes my con-|tent?|Since I|
w: ~I|press her hand|gent- ly, look|lan- guish- ing|down And by|pas- sion- ate|si- lence, I|make my love|known.|But *|
 (ed) c2 =B2 | c2 A2 _B2 | B2 c2 F2 | F4 A-A | G2 (AB) c2 | c2 B2 B2 | B2 A3 B | B4"^cresc." B>B | %18
w: suf\- * fer with|plea- sure, why|should I com-|plain, or *|grieve at * my|fate, when I|know 'tis in|vain? Yet so|
w: oh! * how I'm|blest when so|kind she does|prove, By some|will- ing * mis-|take to dis-|co- ver her|love. When in|
 c2 c2 c2 | c2 B2 d2 | d2 (cd) =e2 | d4!f! dd | d2"^dim." B2 c2 | d2 d2 d2 | d3 d d2 |!p! d4 |] %26
w: pleas- ing the|pain is so|soft is * the|dart, That at|once it both|wounds me and|ti- ckles my|heart.|
w: stri- ving to|hide she re-|veals all * her|flame, And our|eyes tell each|o- ther what|nei- ther dares|name.|
V:4
!p! G,2 | G,2 ^F,2 G,2 | C,2 D,2 B,,2 | E,3 C, D,2 | G,,4 G,G, | A,2 A,2 F,2 | B,2 (B,A,) (G,F,) | %7
w: ~If|love's a sweet|pas- sion why|does it tor-|ment? If a|bit- ter, oh|tell me, * whence *|
w: ~I|press her hand|gent- ly, look|lan- guish- ing|down And by|pas- sion- ate|si- lence, * I *|
 E,3 F, E,2 | D,4 :|!mf! D,D, | (G,F,) E,2 D,2 | C,2 F,2 D,2 | (E,D,) C,2 B,,2 | F,4 F,-F, | %14
w: comes my con-|tent?|Since I|suf\- * fer with|plea- sure, why|should * I com-|plain, or *|
w: make my love|known.|But *|oh! * how I'm|blest when so|kind * she does|prove, By some|
 G,2 F,2 E,2 | D,2 B,,2 E,2 | C,2 F,2 F,,2 | B,,4"^cresc." B,>B, | B,2 B,2 A,2 | B,2 B,2 =B,2 | %20
w: grieve at my|fate, when I|know 'tis in|vain? Yet so|pleas- ing the|pain is so|
w: will- ing mis-|take to dis-|co- ver her|love. When in|stri- ving to|hide she re-|
 C2 C2 ^C2 | D3!f! =C (B,A,) | G,2"^dim." G,2 A,2 | B,2 B,2 C2 | D3 D D,2 |!p! G,4 |] %26
w: soft is the|dart, That at *|once it both|wounds me and|ti- ckles my|heart.|
w: veals all her|flame, And our *|eyes tell each|o- ther what|nei- ther dares|name.|

